X:229
T:Quick Step. JaW.229
M:6/8
L:1/8
Q:3/8=120
S:James Winder Ms, Lancashire, 1835-41
R:.Quickstep
O:England
A:Wyresdale,Lancashire
Z:vmp.Chris Partington, Aug 2004
K:G
“_Key Sig Cmaj in MS”G|BcB Bcd|edd d2g|edd dcB|ABA AGA|!
BcB Bcd|edd d2e|def gaf|ggg g2:|!
|:g|bag fga|gdB gdB|cde dBG|ABA AGA|!
BcB Bcd|edd d2e|def gaf|g2a g2:|

